icons/modern/long-drum.svg

<svg width="32" height="32" viewBox="0 0 32 32" fill="none" xmlns="http://www.w3.org/2000/svg">
<path d="M16.1289 20.1092V20.125C16.0903 20.1225 16.0512 20.1199 16.0117 20.1173C15.9722 20.1199 15.9332 20.1225 15.8945 20.125V20.1092C14.1282 19.9833 11.5727 19.6175 8.59766 16.3359C6.76953 14 6.62891 11.3906 6.62891 10.1562V3.5H25.3945V10.1562C25.3945 11.3906 25.2539 14 23.4258 16.3359C20.4507 19.6175 17.8953 19.9833 16.1289 20.1092Z" fill="url(#paint0_linear_18_19005)"/>
<path d="M16.1289 20.1092V20.125C16.0903 20.1225 16.0512 20.1199 16.0117 20.1173C15.9722 20.1199 15.9332 20.1225 15.8945 20.125V20.1092C14.1282 19.9833 11.5727 19.6175 8.59766 16.3359C6.76953 14 6.62891 11.3906 6.62891 10.1562V3.5H25.3945V10.1562C25.3945 11.3906 25.2539 14 23.4258 16.3359C20.4507 19.6175 17.8953 19.9833 16.1289 20.1092Z" fill="url(#paint1_radial_18_19005)"/>
<path d="M16.1289 20.1092V20.125C16.0903 20.1225 16.0512 20.1199 16.0117 20.1173C15.9722 20.1199 15.9332 20.1225 15.8945 20.125V20.1092C14.1282 19.9833 11.5727 19.6175 8.59766 16.3359C6.76953 14 6.62891 11.3906 6.62891 10.1562V3.5H25.3945V10.1562C25.3945 11.3906 25.2539 14 23.4258 16.3359C20.4507 19.6175 17.8953 19.9833 16.1289 20.1092Z" fill="url(#paint2_linear_18_19005)"/>
<g filter="url(#filter0_i_18_19005)">
<path d="M11.3008 19.4375H20.7226L23.1551 28.955C23.2844 29.461 22.9022 29.9531 22.38 29.9531H9.65758C9.13586 29.9531 8.75374 29.4618 8.88222 28.9561L11.3008 19.4375Z" fill="url(#paint3_linear_18_19005)"/>
<path d="M11.3008 19.4375H20.7226L23.1551 28.955C23.2844 29.461 22.9022 29.9531 22.38 29.9531H9.65758C9.13586 29.9531 8.75374 29.4618 8.88222 28.9561L11.3008 19.4375Z" fill="url(#paint4_linear_18_19005)"/>
</g>
<path d="M11.3008 19.4375H20.7226L23.1551 28.955C23.2844 29.461 22.9022 29.9531 22.38 29.9531H9.65758C9.13586 29.9531 8.75374 29.4618 8.88222 28.9561L11.3008 19.4375Z" fill="url(#paint5_linear_18_19005)"/>
<path fill-rule="evenodd" clip-rule="evenodd" d="M15.5195 19.8125V3.74219H16.5195V19.8125H15.5195Z" fill="url(#paint6_radial_18_19005)"/>
<path fill-rule="evenodd" clip-rule="evenodd" d="M15.5195 19.8125V3.74219H16.5195V19.8125H15.5195Z" fill="url(#paint7_linear_18_19005)"/>
<path fill-rule="evenodd" clip-rule="evenodd" d="M15.5195 19.8125V3.74219H16.5195V19.8125H15.5195Z" fill="url(#paint8_linear_18_19005)"/>
<g filter="url(#filter1_i_18_19005)">
<path fill-rule="evenodd" clip-rule="evenodd" d="M10.0022 3.82812H11.0022V9.67188C11.0022 12.1304 11.0052 15.6771 14.8271 18.9154L14.1807 19.6784C10.0022 16.1379 10.0022 12.1877 10.0022 9.67722V3.82812Z" fill="url(#paint9_linear_18_19005)"/>
</g>
<path fill-rule="evenodd" clip-rule="evenodd" d="M22.0372 3.82812H21.0372V9.67188C21.0372 12.1304 21.0343 15.6771 17.2123 18.9154L17.8587 19.6784C22.0372 16.1379 22.0372 12.1877 22.0372 9.67722V3.82812Z" fill="url(#paint10_linear_18_19005)"/>
<rect x="5.66016" y="2.04688" width="20.7188" height="1.96875" rx="0.984375" fill="url(#paint11_linear_18_19005)"/>
<rect x="5.66016" y="2.04688" width="20.7188" height="1.96875" rx="0.984375" fill="url(#paint12_radial_18_19005)"/>
<rect x="10.5664" y="18.7109" width="10.8672" height="1.45312" rx="0.726562" fill="url(#paint13_linear_18_19005)"/>
<rect x="10.5664" y="18.7109" width="10.8672" height="1.45312" rx="0.726562" fill="url(#paint14_radial_18_19005)"/>
<rect x="10.5664" y="18.7109" width="10.8672" height="1.45312" rx="0.726562" fill="url(#paint15_radial_18_19005)"/>
<defs>
<filter id="filter0_i_18_19005" x="8.75718" y="18.9375" width="14.4232" height="11.0156" filterUnits="userSpaceOnUse" color-interpolation-filters="sRGB">
<feFlood flood-opacity="0" result="BackgroundImageFix"/>
<feBlend mode="normal" in="SourceGraphic" in2="BackgroundImageFix" result="shape"/>
<feColorMatrix in="SourceAlpha" type="matrix" values="0 0 0 0 0 0 0 0 0 0 0 0 0 0 0 0 0 0 127 0" result="hardAlpha"/>
<feOffset dx="-0.1" dy="-0.5"/>
<feGaussianBlur stdDeviation="0.5"/>
<feComposite in2="hardAlpha" operator="arithmetic" k2="-1" k3="1"/>
<feColorMatrix type="matrix" values="0 0 0 0 0.760784 0 0 0 0 0.458824 0 0 0 0 0.309804 0 0 0 1 0"/>
<feBlend mode="normal" in2="shape" result="effect1_innerShadow_18_19005"/>
</filter>
<filter id="filter1_i_18_19005" x="9.9022" y="3.82812" width="4.92495" height="15.9502" filterUnits="userSpaceOnUse" color-interpolation-filters="sRGB">
<feFlood flood-opacity="0" result="BackgroundImageFix"/>
<feBlend mode="normal" in="SourceGraphic" in2="BackgroundImageFix" result="shape"/>
<feColorMatrix in="SourceAlpha" type="matrix" values="0 0 0 0 0 0 0 0 0 0 0 0 0 0 0 0 0 0 127 0" result="hardAlpha"/>
<feOffset dx="-0.15" dy="0.1"/>
<feGaussianBlur stdDeviation="0.05"/>
<feComposite in2="hardAlpha" operator="arithmetic" k2="-1" k3="1"/>
<feColorMatrix type="matrix" values="0 0 0 0 0.270588 0 0 0 0 0.203922 0 0 0 0 0.329412 0 0 0 1 0"/>
<feBlend mode="normal" in2="shape" result="effect1_innerShadow_18_19005"/>
</filter>
<linearGradient id="paint0_linear_18_19005" x1="16.0117" y1="13.375" x2="16.0117" y2="20.125" gradientUnits="userSpaceOnUse">
<stop stop-color="#BE7846"/>
<stop offset="1" stop-color="#AA5961"/>
</linearGradient>
<radialGradient id="paint1_radial_18_19005" cx="0" cy="0" r="1" gradientUnits="userSpaceOnUse" gradientTransform="translate(21.457 7.375) rotate(90) scale(9.9375 10.0567)">
<stop offset="0.192" stop-color="#E69F62"/>
<stop offset="1" stop-color="#E69F62" stop-opacity="0"/>
</radialGradient>
<linearGradient id="paint2_linear_18_19005" x1="16.0117" y1="3.6875" x2="16.0117" y2="4.625" gradientUnits="userSpaceOnUse">
<stop stop-color="#C07041"/>
<stop offset="1" stop-color="#C07041" stop-opacity="0"/>
</linearGradient>
<linearGradient id="paint3_linear_18_19005" x1="13.1758" y1="26.125" x2="20.2383" y2="26.125" gradientUnits="userSpaceOnUse">
<stop stop-color="#CB8349"/>
<stop offset="0.685841" stop-color="#E7A672"/>
</linearGradient>
<linearGradient id="paint4_linear_18_19005" x1="9.36327" y1="25.1875" x2="12.4258" y2="25.9062" gradientUnits="userSpaceOnUse">
<stop stop-color="#B17E59"/>
<stop offset="1" stop-color="#BF7D4B" stop-opacity="0"/>
</linearGradient>
<linearGradient id="paint5_linear_18_19005" x1="16.5508" y1="30.1875" x2="16.5508" y2="29.1875" gradientUnits="userSpaceOnUse">
<stop stop-color="#BF6466"/>
<stop offset="1" stop-color="#BF6466" stop-opacity="0"/>
</linearGradient>
<radialGradient id="paint6_radial_18_19005" cx="0" cy="0" r="1" gradientUnits="userSpaceOnUse" gradientTransform="translate(16.5195 11.5312) rotate(90) scale(11.9063 1.43774)">
<stop offset="0.237736" stop-color="#4F3965"/>
<stop offset="1" stop-color="#3C1157"/>
</radialGradient>
<linearGradient id="paint7_linear_18_19005" x1="15.4805" y1="18.7266" x2="15.6836" y2="18.7266" gradientUnits="userSpaceOnUse">
<stop offset="0.307692" stop-color="#442F54"/>
<stop offset="1" stop-color="#442F54" stop-opacity="0"/>
</linearGradient>
<linearGradient id="paint8_linear_18_19005" x1="16.5703" y1="19.3438" x2="16.3633" y2="19.3438" gradientUnits="userSpaceOnUse">
<stop offset="0.222222" stop-color="#5D4F6A"/>
<stop offset="1" stop-color="#5D4F6A" stop-opacity="0"/>
</linearGradient>
<linearGradient id="paint9_linear_18_19005" x1="12.4147" y1="3.82812" x2="12.4147" y2="19.0312" gradientUnits="userSpaceOnUse">
<stop offset="0.600346" stop-color="#51455E"/>
<stop offset="1" stop-color="#43255B"/>
</linearGradient>
<linearGradient id="paint10_linear_18_19005" x1="19.6248" y1="3.82812" x2="19.6248" y2="19.6784" gradientUnits="userSpaceOnUse">
<stop offset="0.213916" stop-color="#60506B"/>
<stop offset="0.775817" stop-color="#48285C"/>
</linearGradient>
<linearGradient id="paint11_linear_18_19005" x1="16.0195" y1="2.04687" x2="16.0195" y2="4.1875" gradientUnits="userSpaceOnUse">
<stop stop-color="#E1B177"/>
<stop offset="1" stop-color="#F4AD93"/>
</linearGradient>
<radialGradient id="paint12_radial_18_19005" cx="0" cy="0" r="1" gradientUnits="userSpaceOnUse" gradientTransform="translate(21.082 2.625) rotate(90) scale(1.03125 12.6042)">
<stop offset="0.212121" stop-color="#FFD8A2"/>
<stop offset="1" stop-color="#FFD8A2" stop-opacity="0"/>
</radialGradient>
<linearGradient id="paint13_linear_18_19005" x1="16" y1="18.7109" x2="16" y2="20.1641" gradientUnits="userSpaceOnUse">
<stop stop-color="#2B1D37"/>
<stop offset="1" stop-color="#5A316F"/>
</linearGradient>
<radialGradient id="paint14_radial_18_19005" cx="0" cy="0" r="1" gradientUnits="userSpaceOnUse" gradientTransform="translate(18.8164 19.25) rotate(90) scale(0.703125 5.625)">
<stop offset="0.155556" stop-color="#746681"/>
<stop offset="1" stop-color="#746681" stop-opacity="0"/>
</radialGradient>
<radialGradient id="paint15_radial_18_19005" cx="0" cy="0" r="1" gradientUnits="userSpaceOnUse" gradientTransform="translate(10.8008 19.3125) rotate(90) scale(0.851563 6.36841)">
<stop stop-color="#49454D"/>
<stop offset="1" stop-color="#49454D" stop-opacity="0"/>
</radialGradient>
</defs>
</svg>

<svg width="32" height="32" fill="none" xmlns="http://www.w3.org/2000/svg"><path d="M16.129 20.11v.015l-.117-.008-.117.008v-.016c-1.767-.126-4.322-.492-7.297-3.773-1.828-2.336-1.97-4.945-1.97-6.18V3.5h18.767v6.656c0 1.235-.141 3.844-1.97 6.18-2.974 3.282-5.53 3.647-7.296 3.773Z" fill="url(#a)"/><path d="M16.129 20.11v.015l-.117-.008-.117.008v-.016c-1.767-.126-4.322-.492-7.297-3.773-1.828-2.336-1.97-4.945-1.97-6.18V3.5h18.767v6.656c0 1.235-.141 3.844-1.97 6.18-2.974 3.282-5.53 3.647-7.296 3.773Z" fill="url(#b)"/><path d="M16.129 20.11v.015l-.117-.008-.117.008v-.016c-1.767-.126-4.322-.492-7.297-3.773-1.828-2.336-1.97-4.945-1.97-6.18V3.5h18.767v6.656c0 1.235-.141 3.844-1.97 6.18-2.974 3.282-5.53 3.647-7.296 3.773Z" fill="url(#c)"/><g filter="url(#d)"><path d="M11.3 19.438h9.423l2.432 9.517a.8.8 0 0 1-.775.998H9.658a.8.8 0 0 1-.776-.997l2.419-9.518Z" fill="url(#e)"/><path d="M11.3 19.438h9.423l2.432 9.517a.8.8 0 0 1-.775.998H9.658a.8.8 0 0 1-.776-.997l2.419-9.518Z" fill="url(#f)"/></g><path d="M11.3 19.438h9.423l2.432 9.517a.8.8 0 0 1-.775.998H9.658a.8.8 0 0 1-.776-.997l2.419-9.518Z" fill="url(#g)"/><path fill-rule="evenodd" clip-rule="evenodd" d="M15.52 19.813V3.742h1v16.07h-1Z" fill="url(#h)"/><path fill-rule="evenodd" clip-rule="evenodd" d="M15.52 19.813V3.742h1v16.07h-1Z" fill="url(#i)"/><path fill-rule="evenodd" clip-rule="evenodd" d="M15.52 19.813V3.742h1v16.07h-1Z" fill="url(#j)"/><g filter="url(#k)"><path fill-rule="evenodd" clip-rule="evenodd" d="M10.002 3.828h1v5.844c0 2.458.003 6.005 3.825 9.243l-.646.763c-4.179-3.54-4.179-7.49-4.179-10v-5.85Z" fill="url(#l)"/></g><path fill-rule="evenodd" clip-rule="evenodd" d="M22.037 3.828h-1v5.844c0 2.458-.003 6.005-3.825 9.243l.647.763c4.178-3.54 4.178-7.49 4.178-10v-5.85Z" fill="url(#m)"/><rect x="5.66" y="2.047" width="20.719" height="1.969" rx=".984" fill="url(#n)"/><rect x="5.66" y="2.047" width="20.719" height="1.969" rx=".984" fill="url(#o)"/><rect x="10.566" y="18.711" width="10.867" height="1.453" rx=".727" fill="url(#p)"/><rect x="10.566" y="18.711" width="10.867" height="1.453" rx=".727" fill="url(#q)"/><rect x="10.566" y="18.711" width="10.867" height="1.453" rx=".727" fill="url(#r)"/><defs><linearGradient id="a" x1="16.012" y1="13.375" x2="16.012" y2="20.125" gradientUnits="userSpaceOnUse"><stop stop-color="#BE7846"/><stop offset="1" stop-color="#AA5961"/></linearGradient><linearGradient id="c" x1="16.012" y1="3.688" x2="16.012" y2="4.625" gradientUnits="userSpaceOnUse"><stop stop-color="#C07041"/><stop offset="1" stop-color="#C07041" stop-opacity="0"/></linearGradient><linearGradient id="e" x1="13.176" y1="26.125" x2="20.238" y2="26.125" gradientUnits="userSpaceOnUse"><stop stop-color="#CB8349"/><stop offset=".686" stop-color="#E7A672"/></linearGradient><linearGradient id="f" x1="9.363" y1="25.188" x2="12.426" y2="25.906" gradientUnits="userSpaceOnUse"><stop stop-color="#B17E59"/><stop offset="1" stop-color="#BF7D4B" stop-opacity="0"/></linearGradient><linearGradient id="g" x1="16.551" y1="30.188" x2="16.551" y2="29.188" gradientUnits="userSpaceOnUse"><stop stop-color="#BF6466"/><stop offset="1" stop-color="#BF6466" stop-opacity="0"/></linearGradient><linearGradient id="i" x1="15.48" y1="18.727" x2="15.684" y2="18.727" gradientUnits="userSpaceOnUse"><stop offset=".308" stop-color="#442F54"/><stop offset="1" stop-color="#442F54" stop-opacity="0"/></linearGradient><linearGradient id="j" x1="16.57" y1="19.344" x2="16.363" y2="19.344" gradientUnits="userSpaceOnUse"><stop offset=".222" stop-color="#5D4F6A"/><stop offset="1" stop-color="#5D4F6A" stop-opacity="0"/></linearGradient><linearGradient id="l" x1="12.415" y1="3.828" x2="12.415" y2="19.031" gradientUnits="userSpaceOnUse"><stop offset=".6" stop-color="#51455E"/><stop offset="1" stop-color="#43255B"/></linearGradient><linearGradient id="m" x1="19.625" y1="3.828" x2="19.625" y2="19.678" gradientUnits="userSpaceOnUse"><stop offset=".214" stop-color="#60506B"/><stop offset=".776" stop-color="#48285C"/></linearGradient><linearGradient id="n" x1="16.02" y1="2.047" x2="16.02" y2="4.188" gradientUnits="userSpaceOnUse"><stop stop-color="#E1B177"/><stop offset="1" stop-color="#F4AD93"/></linearGradient><linearGradient id="p" x1="16" y1="18.711" x2="16" y2="20.164" gradientUnits="userSpaceOnUse"><stop stop-color="#2B1D37"/><stop offset="1" stop-color="#5A316F"/></linearGradient><radialGradient id="b" cx="0" cy="0" r="1" gradientUnits="userSpaceOnUse" gradientTransform="matrix(0 9.9375 -10.0567 0 21.457 7.375)"><stop offset=".192" stop-color="#E69F62"/><stop offset="1" stop-color="#E69F62" stop-opacity="0"/></radialGradient><radialGradient id="h" cx="0" cy="0" r="1" gradientUnits="userSpaceOnUse" gradientTransform="matrix(0 11.9063 -1.43774 0 16.52 11.531)"><stop offset=".238" stop-color="#4F3965"/><stop offset="1" stop-color="#3C1157"/></radialGradient><radialGradient id="o" cx="0" cy="0" r="1" gradientUnits="userSpaceOnUse" gradientTransform="matrix(0 1.03125 -12.6042 0 21.082 2.625)"><stop offset=".212" stop-color="#FFD8A2"/><stop offset="1" stop-color="#FFD8A2" stop-opacity="0"/></radialGradient><radialGradient id="q" cx="0" cy="0" r="1" gradientUnits="userSpaceOnUse" gradientTransform="matrix(0 .70313 -5.625 0 18.816 19.25)"><stop offset=".156" stop-color="#746681"/><stop offset="1" stop-color="#746681" stop-opacity="0"/></radialGradient><radialGradient id="r" cx="0" cy="0" r="1" gradientUnits="userSpaceOnUse" gradientTransform="matrix(0 .85156 -6.36841 0 10.8 19.313)"><stop stop-color="#49454D"/><stop offset="1" stop-color="#49454D" stop-opacity="0"/></radialGradient><filter id="d" x="8.757" y="18.938" width="14.423" height="11.016" filterUnits="userSpaceOnUse" color-interpolation-filters="sRGB"><feFlood flood-opacity="0" result="BackgroundImageFix"/><feBlend in="SourceGraphic" in2="BackgroundImageFix" result="shape"/><feColorMatrix in="SourceAlpha" values="0 0 0 0 0 0 0 0 0 0 0 0 0 0 0 0 0 0 127 0" result="hardAlpha"/><feOffset dx="-.1" dy="-.5"/><feGaussianBlur stdDeviation=".5"/><feComposite in2="hardAlpha" operator="arithmetic" k2="-1" k3="1"/><feColorMatrix values="0 0 0 0 0.760784 0 0 0 0 0.458824 0 0 0 0 0.309804 0 0 0 1 0"/><feBlend in2="shape" result="effect1_innerShadow_18_19005"/></filter><filter id="k" x="9.902" y="3.828" width="4.925" height="15.95" filterUnits="userSpaceOnUse" color-interpolation-filters="sRGB"><feFlood flood-opacity="0" result="BackgroundImageFix"/><feBlend in="SourceGraphic" in2="BackgroundImageFix" result="shape"/><feColorMatrix in="SourceAlpha" values="0 0 0 0 0 0 0 0 0 0 0 0 0 0 0 0 0 0 127 0" result="hardAlpha"/><feOffset dx="-.15" dy=".1"/><feGaussianBlur stdDeviation=".05"/><feComposite in2="hardAlpha" operator="arithmetic" k2="-1" k3="1"/><feColorMatrix values="0 0 0 0 0.270588 0 0 0 0 0.203922 0 0 0 0 0.329412 0 0 0 1 0"/><feBlend in2="shape" result="effect1_innerShadow_18_19005"/></filter></defs></svg>
